!!!OTL: Petrus und Pilatus (3-15), S. 53
!!!id: P0987
**kern
*clefG2
*k[b-e-]
*g:
{4d
=1
4g
4f#
4g
4a
=2
2b-
2f}
=3
{2b-
2cc
=4
2dd}
4r
=5
{4dd
=6
4ee-
4dd
4dd
8cc
8cc
=7
2dd
4b-}
=8
{4dd
=9
4cc
4b-
4a
4g
=10
[4a
8.a]
16d
2d}
=11
{4.g
8g
2f#
=12
2g}
4r
==
*-
!!!minrhy: 16
!!!meters: 2/2 ]  ZZ[5
!!!cut: Petrus und Pilatus (3-15), S. 53
!!!reg: Lothringen
!!!trd: PINCK, Louis: Verklingende Weisen, Bd3, Metz 1933
!!!rhy1: X__  X__X__X__X__  X___X___   (x4)
!!!rhy2: X___X___  X___0
!!!key: P0987  16  G 2/2 ]  ZZ[5
!!!mod: ACHTTONSKALA MELODISCH MOLL OHNE 6]  AMBITUS[9b
!!!kad: -7b53b-51
!!!akz: 13b_3b5_6b5_42_11_
!!!fot: 'a__b__c__d__e__
!!!for: 'a__b__c__d__e__
!!!fok: '^a_/__\__\__-__
!! PHRAS[GEMISCHTTAKTIG]
!!!fkt: yyy
!! LOTH VKL
!! PR[43] 2K[2] 2G[11] 3K[2] 3G[0] 4A[7] 4Ü[0] 5A[0] 6K[0] 6G[0]
!! 7K[0] 7G[0] 8A[0] MEHR[0] SI[23] ABS[44] SR[14] SP[9]
!! ST[16] 2k[7] 2g[20] 3k[5] 3g[2] 4d[0] 4ü[0] 5d[0] 6k[0] 6g[0]
!! 7k[0] 7g[0] 8d[0] mehr[0] si[34] dm[-11] sr[27] sp[7]
!! 1F[4] 2F[87] 3F[9] 4F[0] LF[0] 2P[0] 3P[0] 4P[0] TRI[0] DF[3] AB[45]
!! TF[0] U3K[0] U3[0] U4[0] U4Ü[0] U5[0] U6K[0] U6[0] U7K[0] U7[0]
!! N1[18] N2K[0] N2[44] N3K[0] N3[22] N4[9] N4Ü[0] N5[7] N6K[0] N6[0]
!!!n7k: 0] N7[0] O1[0] O2K[0] O2[0] O3K[0] O3[0] HÖ[0
